X:1
T:Polska från Södermanland
T:Svenska Folkdansar H4 nr 1
O:Södermanland
B:Traditioner av Svenska Folkdansar Häfte 4, nr 1
R:Polska
Z:Nils L
U:w=wedge
U:t=tenuto
M:3/4
L:1/8
K:Dm
ta2 ab ag | ag fe fg | a2 ab ag | {b/}ag/a/ f4 ::
wf2 fa gf | we2 tc4 | d2 df ed | w^c2 tA4 |
ag fe fg | ag/a/ ba gf | (e>f) d2 ^c2 | wd2 td4 :|

